X:1
T:Qui sequitur me
T:Orlando di Lasso
T:Source : Bicinia---Antwerp---Pierre Phalèse Jr---1609. Editor : André Vierendeels (10/05/17).
T:Notes : Original clefs :  C1, C3 Original note values have been halved Editorial accidentals above the staff
T:Qui sequitur me
T:©
T:©
T:©
C:Orlando di Lasso
Z:©
%%score [ 1 2 ]
L:1/8
Q:1/4=120
M:2/2
K:F
V:1 treble nm="Soprano" snm="S"
V:2 treble-8 nm="Tenor" snm="T"
V:1
 E6 F2- | FF G4 E2 | z2 c4 A2- | AA F4 D2 | z2 G4 E2- | EE F2 G3 F | ED C2 z2 c2 | A6 B2 | %8
w: Qui se-|* qui tur me,|qui se-|* qui- tur me,|qui se-|* qui- tur me, _|_ _ _ non|am- bu-|
 A4 z2 A2 | F6 E2 | F4 c3 B | AG F2 EFGE | FG A4 G2 | A8- | A4 z2 A2- | A2 F2 A3 G | FEFG A2 F2 | %17
w: lat, non|am- bu-|lat in _|_ _ _ te- * * *|* * * ne-|bris,|_ sed|_ ha- be- *|* * * * bit, sed|
 c4 A2 c2- | cBAG A2 F2- | F2 B3 A/G/ FG | AB c3 A B2 | A3 G ABcA | B2 AB cA d2- | dc/B/ c2 d4 | %24
w: ha- be- *|* * * * * bit|_ lu- * * * *||men _ _ _ _ _|_ vi- * * * *|* * * * tae,|
 z2 A2 B2 c2- | cB/A/BG A3 A | G2 c3 B/A/ B2 | A3 B c2 GA | Bc d3 cBA | BAGF Bcdc | BA A4 G2 | %31
w: di- cit Do-|* * * * * * mi-|nus, di- * * *|cit, _ _ Do- *|||* * * mi-|
 A8 |] %32
w: nus.|
V:2
 z4 A4 | B3 B c4 | A4 f4 | d3 d B4 | G4 c4 | A3 A B2 c2- | cBAG F4 | z2 f2 d4- | d2 ^c2 d4 | %9
w: Qui|se- qui- tur|me, qui|se- qui- tur|me, qui|se- qui- tur me|_ _ _ _ _|non am-|* bu- lat,|
 z2 d2 A4- | A2 B2 A2 F2- | FGAB cABc | d4 B3 B | A4 z2 f2- | f2 d2 f3 e | dcde f2 d2 | %16
w: no am-|* bu- lat in|_ _ _ _ _ _ _ _|* te- ne-|bris, sed|_ ha- be- *|* * * * * bit,|
 z2 a2 f2 a2- | agfe f3 g | agfe dc d2 | B2 GA Bcde | f3 e f2 d2- | dcde fdef | gd f2 f2 ed | %23
w: sed ha- be-|||bit lu- * * * * *|* * * men|_ _ _ _ _ _ _ _|* * * vi- * *|
 e4 d4- | d4 z2 e2 | f2 g3 f/e/ fd | e3 e d2 g2- | gf/e/ f2 e3 f | g2 GA Bc d2- | dcBA GFBc | %30
w: * tae,|_ di-|cit Do- * * * *|* mi- nus, di-|* * * * cit _|_ Do- * * * *||
 dccB/A/ B2 B2 | A8 |] %32
w: * * * * * * mi-|us.|

